X:1
T:Title
%%score ( 1 2 ) { 3 | 4 }
L:1/8
Q:1/4=108
M:4/4
K:C
V:1 treble nm="Grand Piano, Unnamed-000"
V:2 treble 
V:3 bass nm="Choir Pad, Wellesley, 87.87"
V:4 bass 
V:1
 z2 .c2 z4 | z2 .d2 z4 | z4 F2 E2 | D2 [C^F]2 [B,G]4 | [FG]2 AG [EG]2 ec | [FG]2 AG [EG]2 [Ec]2 | %6
 [Ec]2 [Fc]2 ce[Ec][FA] | [DG]2 [Fd]2 [Ec]4- | [Ec]4 z4 |] %9
V:2
 [EG]2 E-[Ed] [Fc]2 [FB]2 | [FG]2 F-[Fe] [Ed]2 [Ec]2 | [CA]2 [CG]2 B,DC^C | x8 | z2 F2 z2 E2 | %5
 z2 F2 z4 | z4 E2 z2 | x8 | x8 |] %9
V:3
 G,2 G,2 G,2 G,2 | G,2 G,2 G,2 G,2 | F,2 G,2 G,2 G,2 | ^F,2 A,2 G,4 | B,2 B,2 C2 G,2 | %5
 G,2 B,2[K:treble] C2 G,2 | C2 C2 C[K:bass]B,A,C | CB,A,B,[K:treble] C4- | C4 z4 |] %9
V:4
 C,2 C,2 D,2 G,,2 | B,,2 G,,2 C,2 C,2 | z2 E,2 D,B,,C,A,, | D,2 D,2 G,,4 | G,2 G,2 C,2 C,2 | %5
 B,,2 G,,2 C,2 C,2 | A,2 ^G,2 =G,^G, z F, | G,2 G,,2 C,4- | C,4 z4 |] %9

